assets/images/small-circle--blue.svg

<svg height="30" viewBox="0 0 70 30" width="70" xmlns="http://www.w3.org/2000/svg"><path d="m26.8462408 3.06916497c-5.4193703.02142-10.3285085 1.43513949-14.8842342 3.45118917-5.01709371 2.22082481-7.63416435 5.70885636-8.15121478 10.08538916-.31250301 2.6406567.9204634 4.8006487 3.4591242 6.5999281 1.62387926 1.1498252 3.53980678 1.9098065 5.60346298 2.4427359 2.5761612.6657334 5.2261867 1.184954 7.9648494 1.2115148 6.337561.0625463 18.9055423.2619593 28.0517944-1.2115148s11.2039215-1.2105076 14.0080359-2.8875773c4.2940617-2.5681695 4.3351762-4.0306371 4.3351762-7.8566724 0-1.5040677-.9636444-2.6721101-2.8183956-4.3062127-1.8547513-1.63410265-7.2822583-4.58212801-7.778854-4.74406315-7.5432544-2.46329912-17.0248489-3.54298451-26.5931228-2.78557358-.2988665 0-1.7477441-.004284-3.1966217.0008568zm30.6195711 0c3.0545749 1.02558924 6.8126073 3.72742191 8.9546734 5.61238124 1.8875182 1.66219139 5.9157381 7.92419709 1.7779113 13.52662279-4.1378268 5.6024256-6.6578 4.6517531-18.0660321 6.5727895-7.1502795 1.2040383-25.8247845 1.6972287-33.2737198.6373675-2.5125242-.3572855-4.9443658-.8816469-7.28416105-1.6450555-2.54320629-.8293821-4.71140898-2.0511784-6.46483494-3.6731002-2.01820125-1.8669666-3.1375302-3.9961138-3.10912084-6.4234273.06818248-5.9513307 3.34548675-10.65773144 10.16259783-13.65053277 5.0364121-2.21225681 10.5103284-3.72622187 16.5047043-3.71594027 1.2704668.0017136 2.5420699 0 2.8807095 0 10.1080519-.8379501 19.7024206.0017136 27.9172724 2.75889501z" fill="#4dabf7" fill-rule="evenodd"/></svg>

<svg xmlns="http://www.w3.org/2000/svg" width="70" height="30" viewBox="0 0 70 30">
  <path fill="#4DABF7" fill-rule="evenodd" d="M26.8462408,3.06916497 C21.4268705,3.09058497 16.5177323,4.50430446 11.9620066,6.52035414 C6.94491289,8.74117895 4.32784225,12.2292105 3.81079182,16.6057433 C3.49828881,19.2464 4.73125522,21.406392 7.26991602,23.2056714 C8.89379528,24.3554966 10.8097228,25.1154779 12.873379,25.6484073 C15.4495402,26.3141407 18.0995657,26.8333613 20.8382284,26.8599221 C27.1757894,26.9224684 39.7437707,27.1218814 48.8900228,25.6484073 C58.0362749,24.1749332 60.0939443,24.4378997 62.8980587,22.76083 C67.1921204,20.1926605 67.2332349,18.7301929 67.2332349,14.9041576 C67.2332349,13.4000899 66.2695905,12.2320475 64.4148393,10.5979449 C62.560088,8.96384225 57.132581,6.01581689 56.6359853,5.85388175 C49.0927309,3.39058263 39.6111364,2.31089724 30.0428625,3.06830817 C29.743996,3.06830817 28.2951184,3.06402417 26.8462408,3.06916497 Z M57.4658119,3.06916497 C60.5203868,4.09475421 64.2784192,6.79658688 66.4204853,8.68154621 C68.3080035,10.3437376 72.3362234,16.6057433 68.1983966,22.208169 C64.0605698,27.8105946 61.5405966,26.8599221 50.1323645,28.7809585 C42.982085,29.9849968 24.30758,30.4781872 16.8586447,29.418326 C14.3461205,29.0610405 11.9142789,28.5366791 9.57448365,27.7732705 C7.03127736,26.9438884 4.86307467,25.7220921 3.10964871,24.1001703 C1.09144746,22.2332037 -0.02788149,20.1040565 0.000527874289,17.676743 C0.0687103487,11.7254123 3.34601462,7.01901156 10.1631257,4.02621023 C15.1995378,1.81395342 20.6734541,0.299988362 26.66783,0.310269959 C27.9382968,0.311983558 29.2098999,0.310269959 29.5485395,0.310269959 C39.6565914,-0.527680142 49.2509601,0.311983558 57.4658119,3.06916497 Z"/>
</svg>
